X:1
T:Title
%%score { ( 1 3 5 ) | ( 2 4 ) }
L:1/8
Q:1/4=100
M:4/4
K:Bb
V:1 treble nm="Grand Piano"
V:3 treble 
V:5 treble 
V:2 bass 
V:4 bass 
V:1
 [DB]3- [DB]/[F,F]/ [DB]3- [DB]/F/ | d>c B>A B2 B2 | e2 e2 d2 d2 | G2 F2 c4[K:bass][K:treble] | %4
w: Charles~H.~Gabriel * * * * *||||
 [DB]3- [DB]/[F,F]/ [DB]3- [DB]/F/ | d>c B>A B2 d2 | c2 B->[B=e] [Af]2 F->[DFB] | %7
w: |||
 [FA]2 [B,=EG]2 [A,F]4 | [ce]4- [ce]>d e>d | [Ac]4- [Ac]>=B c2 | [B,FB]2 c2 d3 c | d2 c2 d4 | %12
w: |||||
 [ce]4- [ce]>d e>d | [Ac]4- [Ac]>=B c2 | F->[Fc] d>e f3 [Ge] | [Fd]2 [Ec]2 [DB]4 | %16
w: ||||
 e->[_Ae-] [Ge-]>[Fe-] [Ee]>e d>c | B->[_AB-] [GB-]>[FB-] [EB]>B [Gc]>[Ge] | %18
w: ||
 [_Ad]>[DA] [DA]>G B,>B, z d | [Gc]>[EG] [EG]>[E^F] z z/ B,/ z2 | %20
w: ||
 e->[_Ae-] [Ge-]>[Fe-] [Ee]>e d>c | B->[_AB-] [GB-]>[FB-] [EB]>B [GB]>[Gc] | %22
w: ||
 (3[Gd][Gd][Gd] [Gd]>[GB] (3[^Fd][Fd][Fd] [Fd]>[FA] | [^Fc]>[FA] [Fd]>[FA] [Fd]3 D | %24
w: ||
 D>D D>D D>D D>D | D>D D>D D>D E>=E | F2 F>F F>F F>F |[M:5/4] F>F F>F [Af]6 | %28
w: ||||
[M:4/4] [Fd]2 [Fd]2 [Fd]>[Ec] [DB]>[EG] | [DF]2 [DF]4 [DB]>[DG] | z2 e2 e2 [Ge]2[K:bass] | %31
w: |||
 [Fd]6 z2 | d2 G2 [EG]2 [EG]2 | z2 [Fd]2 c2 c2 |[M:19/16] F->[Fc]d>ef/-f/-f/-f/-f/-f-<f[Ge] | %35
w: ||||
[M:6/4] [Fd]3 [Ec]3 [DB]6 |] %36
w: |
V:2
 [B,,F,]4 [B,,F,]3- [B,,F,]/[D,B,]/ | [F,B,F]2 [F,CE]2 [B,D]2 [_A,B,D]2 | %2
 [G,B,E]2 [^F,B,E]2 [=F,B,F]2 [F,B,F]2 | z4 [F,F-]2 F2 | [B,,F,]4 [B,,F,]3- [B,,F,]/[D,B,]/ | %5
 [F,B,F]2 [F,CE]2[K:treble] [G,B,D]2 [_A,=B,F]2 | [A,CF]2[K:bass] [G,C]2 [F,C]2 A,>B, | %7
 C2 C,2 F,4 | F,>A, C>A, F,>[K:treble]=B c>_B | F,>A, C>A, F,>[K:treble]_A =A>F | %10
 D,2 [F,A,F]2[K:treble] [B,F]3 [F,A,F] | [B,F]2 [F,A,F]2 [B,F]4 | F,>A, C>A, F,>[K:treble]=B c>_B | %13
 F,>A, C>A, F,>[K:treble]_A =A>F | z2[K:treble] [B,F]2 z4[K:bass] | [F,B,]2 [F,A,]2 [B,,B,]4 | %16
 [E,B,]>[E,C] [E,B,]>[E,_A,] [E,G,]>[K:treble]c B>_A | E,>[E,C] [E,B,]>[E,_A,] z z/ G/ [E,B,]2 | %18
 [F,B,]2 z z/ _D/ F,>B,, z _A | z4 z2 B,2[K:treble] | %20
 [E,B,]>[E,C] [E,B,]>[E,_A,] [E,G,]>[K:treble]c B>_A | E,>[E,C] [E,B,]>[E,_A,] z z/ G/ [E,B,]2 | %22
 (3[D,B,][D,B,][D,B,] [D,B,]>[D,D] (3[D,A,][D,A,][D,A,] [D,A,]>[D,D] | %23
 [D,A,]>[D,D] [D,A,]>[D,D] [D,A,]4 | [D,A,C]4 [D,G,B,]4 | [D,^F,A,]6 z2 | [F,CE]4 [F,B,D]4 | %27
[M:5/4] [F,A,C]2 [F,B,D]2 [F,CE]6 |[M:4/4] [B,,B,]2 [B,,B,]2 [B,,B,]>[B,,B,] [B,,B,]>[B,,B,] | %29
 [B,,B,]2 [B,,B,]4 [B,,B,]>[B,,B,] | F,>[K:treble]G, [A,CG]2[K:bass] [F,CG]2 [D,A,]2 | B,4 z4 | %32
 [G,=B,F]2 [G,B,F]2[K:bass] [C,C]2 [C,C]2 | [A,,C]2 [B,,B,]2 [F,A,F]2 [F,A,F]2 | %34
[M:19/16] z/ z/ z[K:treble] [B,F]-<[B,F] z/ z/ z/ z/ z/ z/ z/ z/ z/[K:bass] z | %35
[M:6/4] [F,B,]3 [F,A,]3 [B,,B,]6 |] %36
V:3
 x8 | x8 | x8 | [B,c]->[B,=Ec] [B,c]->[B,Gc] z z/[K:bass] E,/ D,>[K:treble]_E | x8 | x8 | %6
 z2 d2 z2 [Cc]2 | x8 | x8 | x8 | x8 | x8 | x8 | x8 | [B,B]2 z2 z4 | x8 | G2 z2 z4 | [EG]2 z2 z4 | %18
 z4 [D_A-]2 A2 | z4 [EG]4 | G2 z2 z4 | [EG]2 z2 z4 | x8 | x8 | x8 | x8 | x8 |[M:5/4] x10 | %28
[M:4/4] x8 | x8 | [CEA]2 z z/ G,/ z z/ E,/ z z/[K:bass] C,/ | z z/ C,/ D,>F, B,2 z2 | x8 | %33
 [Fe]2 z z/ D,/ z z/ G,/ z z/ E,/ |[M:19/16] B3/2 z/ z/ z/ z/ z/ z/ z/ z/ z/ z/ z/ z/ z/ z/ z | %35
[M:6/4] x12 |] %36
V:4
 x8 | x8 | x8 | E,>C, D,>E, A,3- A,/-[C,A,]/ | x8 | x4[K:treble] x4 | x2[K:bass] x6 | x8 | %8
 x11/2[K:treble] x5/2 | x11/2[K:treble] x5/2 | x4[K:treble] x4 | x8 | x11/2[K:treble] x5/2 | %13
 x11/2[K:treble] x5/2 | D,>[F,A,][K:treble] z z/ C/ [B,DFB]3[K:bass] [E,B,] | x8 | %16
 x11/2[K:treble] x5/2 | z4 [E,G,]2 z2 | z2 [B,,B,]2 z2 B,2 | %19
 [E,B,]2 [B,,B,]2 [E,B,]>B,, z[K:treble] B | x11/2[K:treble] x5/2 | z4 [E,G,]2 z2 | x8 | x8 | x8 | %25
 x8 | x8 |[M:5/4] x10 |[M:4/4] x8 | x8 | x3/2[K:treble] x5/2[K:bass] x4 | B,,2 z2 z4 | %32
 x4[K:bass] x4 | x8 | %34
[M:19/16] [D,B,]>[F,A,][K:treble] z/ z C/[B,DFB]/-[B,DFB]/-[B,DFB]/-[B,DFB]/-[B,DFB]/-[B,DFB]-<[B,DFB][K:bass][E,B,] | %35
[M:6/4] x12 |] %36
V:5
 x8 | x8 | x8 | x11/2[K:bass] x2[K:treble] x/ | x8 | x8 | x8 | x8 | x8 | x8 | x8 | x8 | x8 | x8 | %14
 x8 | x8 | x8 | x8 | z4 z2 D2 | x8 | x8 | x8 | x8 | x8 | x8 | x8 | x8 |[M:5/4] x10 |[M:4/4] x8 | %29
 x8 | x15/2[K:bass] x/ | x8 | x8 | x8 |[M:19/16] x19/2 |[M:6/4] x12 |] %36

